X: 35641
T: Sailing Through The Narrows
R: waltz
M: 3/4
K: Gmajor
D2|:B2 BA Bd|Bc EE FG|A2 E3 G|FG/F/ ED GA|
B2 BA Bd|Bc EE FG|GF ED AB|1 G4 D2:|2 G4 GF||
|:E2 ED EF|FG EE FG|GF D2 A2-|AB AG FG|
E2 ED EF|FG E2 FG|GF ED AB|1 G4 GF:|2 G4 D2||

